X:1
T:(unknown title)
M:4/4
L:1/4
K:Eb
 z2 z B| E3 F| G A B B| G3 B| ee/2-e/2 f d| e3e/2-f/2| g/2g/2 e f d|\
 e/2e/2 e B3/2 G/4G/4| A A B B| E3 B| E3 F| G A B B| G3 B| ee/2-e/2 f d|\
 e3e/2-f/2| g e f d|e/2-e/2 e B3/2G/4-G/4| G A B B| E3 B| E F G A/2A/2|\
 B c d B| ee/2-e/2 f d| e3 e/2f/2| g e f d| e/2e/2 e/2e/2 B3/2 G/2|\
 A A B B| E2- E z|

